svgs/light/light-switch-off.svg

<svg xmlns="http://www.w3.org/2000/svg" viewBox="0 0 384 512"><!-- Font Awesome Pro 6.0.0-alpha2 by @fontawesome - https://fontawesome.com License - https://fontawesome.com/license (Commercial License) --><path d="M320 0H64C28.625 0 0 28.625 0 64V448C0 483.375 28.625 512 64 512H320C355.375 512 384 483.375 384 448V64C384 28.625 355.375 0 320 0ZM352 448C352 465.625 337.625 480 320 480H208V464C208 455.156 200.844 448 192 448S176 455.156 176 464V480H64C46.375 480 32 465.625 32 448V64C32 46.375 46.375 32 64 32H176V48C176 56.844 183.156 64 192 64S208 56.844 208 48V32H320C337.625 32 352 46.375 352 64V448ZM240 96H144C117.6 96 96 117.6 96 144V368C96 394.4 117.6 416 144 416H240C266.4 416 288 394.4 288 368V144C288 117.6 266.4 96 240 96ZM256 368C256 376.836 248.838 384 240 384H144C135.164 384 128 376.836 128 368V272H256V368ZM256 240H128V144C128 135.164 135.164 128 144 128H240C248.838 128 256 135.164 256 144V240ZM176 352H208C216.844 352 224 344.844 224 336S216.844 320 208 320H176C167.156 320 160 327.156 160 336S167.156 352 176 352Z"/></svg>

<svg xmlns="http://www.w3.org/2000/svg" viewBox="0 0 384 512"><!--! Font Awesome Pro 6.3.0 by @fontawesome - https://fontawesome.com License - https://fontawesome.com/license (Commercial License) Copyright 2023 Fonticons, Inc. --><path d="M320 0H64c-35.38 0-64 28.62-64 64v384c0 35.38 28.62 64 64 64h256c35.38 0 64-28.62 64-64v-384C384 28.62 355.4 0 320 0zM352 448c0 17.62-14.38 32-32 32h-112v-16c0-8.844-7.156-16-16-16s-16 7.156-16 16V480H64c-17.62 0-32-14.38-32-32V64c0-17.62 14.38-32 32-32h112v16C176 56.84 183.2 64 192 64s16-7.156 16-16V32H320c17.62 0 32 14.38 32 32V448zM240 95.1h-96c-26.4 0-48 21.6-48 47.1v224c0 26.4 21.6 48 48 48h96c26.4 0 48-21.6 48-48v-224C288 117.6 266.4 95.1 240 95.1zM256 368c0 8.836-7.162 16-16 16h-96C135.2 384 128 376.8 128 368v-96h128V368zM256 240H128v-96C128 135.2 135.2 128 144 128h96C248.8 128 256 135.2 256 144V240zM176 352h32c8.844 0 16-7.156 16-16S216.8 320 208 320h-32C167.2 320 160 327.2 160 336S167.2 352 176 352z"/></svg>
